images/feature-1.svg

<svg width="79" height="78" viewBox="0 0 79 78" fill="none" xmlns="http://www.w3.org/2000/svg">
<path d="M46.25 45.25V56.8463C46.9938 57.2788 47.5 58.0762 47.5 59C47.5 59.9225 46.9938 60.72 46.25 61.1537V71.5H58.75V45.25H46.25Z" fill="#FF6E40"/>
<path d="M36.25 52.75H13.75V40.25H36.25V52.75Z" fill="#FF6E40"/>
<path d="M47.1925 17.75C45.3275 17.75 43.7075 19.0137 43.2562 20.8237L43.1012 21.4437L41.5112 20.99L38.7025 11.1575L36.2987 11.845L38.68 20.1812L30.3437 17.8L29.6562 20.2037L39.4887 23.0125L39.9425 24.6025L39.3225 24.7575C37.5137 25.2075 36.25 26.8275 36.25 28.6925C36.25 30.93 38.07 32.75 40.3075 32.75C42.2062 32.75 43.75 31.205 43.75 29.3075C43.75 28.99 43.705 28.6725 43.6175 28.3612L42.32 23.82L46.8637 25.1187C47.1712 25.205 47.49 25.25 47.8075 25.25C49.7062 25.25 51.25 23.7062 51.25 21.8075C51.25 19.57 49.43 17.75 47.1925 17.75V17.75ZM40.3075 30.25C39.4487 30.25 38.75 29.5512 38.75 28.6925C38.75 27.9762 39.235 27.355 39.93 27.1812L40.63 27.0062L41.2125 29.0462C41.2375 29.1312 41.25 29.22 41.25 29.3075C41.25 29.8275 40.8275 30.25 40.3075 30.25V30.25ZM47.5487 22.7137L45.5062 22.13L45.6812 21.43C45.855 20.735 46.4762 20.25 47.1925 20.25C48.0512 20.25 48.75 20.9487 48.75 21.8075C48.75 22.4137 48.13 22.8787 47.5487 22.7137V22.7137Z" fill="#EFE7E2"/>
<path d="M76.2501 27.75H75.4301L78.9401 16.0512L78.2814 15.525C65.9689 5.67375 50.5051 0.25 34.7389 0.25H21.2501V11.2563C9.73887 13.285 2.23012 17.705 1.85637 17.9287L0.963867 18.465L4.44637 27.75H3.75012C2.37137 27.75 1.25012 28.8712 1.25012 30.25V32.75C1.25012 34.1288 2.37137 35.25 3.75012 35.25V62.1887C2.22512 63.0712 1.25012 64.7037 1.25012 66.5C1.25012 67.28 1.45012 68.0312 1.79012 68.7162C1.45762 69.1412 1.25012 69.6687 1.25012 70.25V77.75H76.2501V67.75C77.6289 67.75 78.7501 66.6288 78.7501 65.25V47.75C78.7501 46.9263 78.3451 46.2 77.7289 45.745C78.3614 44.9075 78.7501 43.8775 78.7501 42.75C78.7501 40.9075 77.7376 39.3125 76.2501 38.445V35.25C77.6289 35.25 78.7501 34.1288 78.7501 32.75V30.25C78.7501 28.8712 77.6289 27.75 76.2501 27.75V27.75ZM23.7501 2.75H34.7389C49.6601 2.75 64.2989 7.7875 76.0589 16.955L72.8201 27.75H68.7501V19.5988L68.2176 19.225C68.0089 19.0788 63.0739 15.6787 53.8801 13.0912C51.0264 8.40125 45.8814 5.25 40.0001 5.25C35.3289 5.25 31.1239 7.2425 28.1564 10.4087C26.6376 10.5137 25.1689 10.67 23.7501 10.865V2.75ZM40.0001 35.25C32.4189 35.25 26.2501 29.0813 26.2501 21.5C26.2501 13.9187 32.4189 7.75 40.0001 7.75C47.5814 7.75 53.7501 13.9187 53.7501 21.5C53.7501 29.0813 47.5814 35.25 40.0001 35.25ZM12.1514 27.75L10.1876 21.86C11.0351 21.5425 11.9551 21.22 12.9364 20.9012L14.6489 27.75H12.1514ZM17.2264 27.75L15.3314 20.1725C16.1389 19.9437 16.9889 19.7263 17.8614 19.5163L19.6926 27.75H17.2264ZM22.2526 27.75L20.3026 18.9738C21.5089 18.7325 22.7651 18.5187 24.0639 18.3387C23.8614 19.3612 23.7501 20.4175 23.7501 21.5C23.7501 23.7138 24.1989 25.825 25.0039 27.75H22.2526ZM66.2501 23.0325C64.2751 21.9337 60.8226 20.2513 55.9951 18.7238C55.8401 17.8313 55.6126 16.965 55.3189 16.1288C61.1901 17.9975 64.9301 20.1175 66.2501 20.9325V23.0325ZM56.2464 21.4338C56.2476 21.4338 56.2489 21.435 56.2501 21.435V21.5V27.75H54.9964C55.8014 25.825 56.2501 23.7138 56.2501 21.5C56.2501 21.4775 56.2464 21.4563 56.2464 21.4338ZM58.7501 22.3313C59.6601 22.6813 60.4901 23.0263 61.2501 23.3613V27.75H58.7501V22.3313ZM63.7501 24.5425C64.9164 25.1363 65.7551 25.6262 66.2501 25.9325V27.75H63.7501V24.5425ZM26.1214 13.0912C25.6151 13.9237 25.1826 14.8013 24.8301 15.7225C15.5964 16.8413 8.35637 19.7363 4.74762 21.4338L4.05012 19.5737C6.70887 18.1787 14.9976 14.2637 26.1214 13.0912V13.0912ZM5.62887 23.7837C6.25387 23.4862 6.99637 23.15 7.86012 22.785L9.51512 27.75H7.11637L5.62887 23.7837ZM3.75012 30.25H26.3289C26.9051 31.1475 27.5651 31.985 28.3014 32.75H3.75012V30.25ZM5.43387 64.1538L6.33137 63.8413L6.27012 62.8925L6.25012 62.75C6.25012 61.3712 7.37137 60.25 8.75012 60.25C9.80262 60.25 10.7464 60.9275 11.0964 61.9338L11.4089 62.8312L12.3576 62.77L12.5001 62.75C13.8789 62.75 15.0001 63.8712 15.0001 65.25C15.0001 66.6288 13.8789 67.75 12.5001 67.75H4.09137C3.87262 67.3725 3.75012 66.9437 3.75012 66.5C3.75012 65.4475 4.42762 64.5038 5.43387 64.1538V64.1538ZM32.0664 64.1538C33.0726 64.5038 33.7501 65.4475 33.7501 66.5C33.7501 66.9437 33.6289 67.3725 33.4089 67.75H25.0001C23.6214 67.75 22.5001 66.6288 22.5001 65.25C22.5001 63.8712 23.6214 62.75 24.9564 62.75L26.0901 62.8312L26.4026 61.9338C26.7539 60.9275 27.6976 60.25 28.7501 60.25C30.1289 60.25 31.2501 61.3713 31.2501 62.7063L31.1689 63.84L32.0664 64.1538ZM23.7351 60.4288C21.5914 60.9925 20.0001 62.9325 20.0001 65.25C20.0001 66.165 20.2651 67.0112 20.6951 67.75H16.8039C17.2351 67.0112 17.5001 66.165 17.5001 65.25C17.5001 62.69 15.5664 60.5738 13.0826 60.2838C12.8276 59.8338 12.5014 59.4388 12.1301 59.0938C12.8339 58.2588 13.8789 57.75 15.0001 57.75C15.9376 57.75 16.8401 58.11 17.5426 58.7625L18.5039 59.6563L19.3489 58.6525C19.8326 58.0788 20.5251 57.75 21.2501 57.75C22.6289 57.75 23.7501 58.8712 23.7501 60.25C23.7501 60.31 23.7389 60.3688 23.7351 60.4288V60.4288ZM33.7501 75.25H3.75012V70.25H33.7501V75.25ZM36.2501 72.75H66.2501V75.25H36.2501V72.75ZM61.2501 70.25H53.7501V67.75H58.7501V65.25H53.7501V62.75H58.7501V60.25H53.7501V57.75H58.7501V55.25H53.7501V52.75H58.7501V50.25H53.7501V45.25H51.2501V50.25H46.2501V52.75H51.2501V55.25H46.2501V55.48C45.8576 55.34 45.4401 55.25 45.0001 55.25C44.5601 55.25 44.1426 55.34 43.7501 55.48V42.75H61.2501V70.25ZM45.0001 60.25C44.3114 60.25 43.7501 59.6887 43.7501 59C43.7501 58.3113 44.3114 57.75 45.0001 57.75C45.6889 57.75 46.2501 58.3113 46.2501 59C46.2501 59.6887 45.6889 60.25 45.0001 60.25ZM48.5201 57.75H51.2501V60.25H48.5201C48.6601 59.8575 48.7501 59.44 48.7501 59C48.7501 58.56 48.6601 58.1425 48.5201 57.75ZM43.7501 62.52C44.1426 62.66 44.5601 62.75 45.0001 62.75C45.4401 62.75 45.8576 62.66 46.2501 62.52V62.75H51.2501V65.25H46.2501V67.75H51.2501V70.25H43.7501V62.52ZM71.2501 65.25V62.75H76.2514V65.25H71.2501ZM71.2501 42.75C71.2501 41.3712 72.3714 40.25 73.7501 40.25C75.1289 40.25 76.2501 41.3712 76.2501 42.75C76.2501 44.1288 75.1289 45.25 73.7501 45.25C72.3714 45.25 71.2501 44.1288 71.2501 42.75ZM76.2501 47.75V50.25H71.2501V47.75H76.2501ZM76.2514 59.165L71.2501 55.8313V53.8362L76.2514 57.17V59.165ZM74.1289 52.75H76.2501V54.165L74.1289 52.75ZM73.3714 60.25H71.2501V58.835L73.3714 60.25ZM73.7501 37.75C70.9926 37.75 68.7501 39.9925 68.7501 42.75C68.7501 43.8775 69.1389 44.9075 69.7714 45.745C69.1551 46.2 68.7501 46.9263 68.7501 47.75V65.25C68.7501 66.6288 69.8714 67.75 71.2501 67.75H73.7501V75.25H68.7501V72.75C68.7501 71.3712 67.6289 70.25 66.2501 70.25H63.7501V40.25H41.2501V70.25H36.2501C36.2501 69.6687 36.0426 69.1412 35.7101 68.7162C36.0501 68.0312 36.2501 67.28 36.2501 66.5C36.2501 64.69 35.2614 63.0438 33.7164 62.1675C33.4264 59.6838 31.3101 57.75 28.7501 57.75C27.7289 57.75 26.7651 58.0738 25.9564 58.6263C25.2776 56.6688 23.4351 55.25 21.2501 55.25C20.1876 55.25 19.1664 55.5937 18.3176 56.2162C17.3264 55.5875 16.1814 55.25 15.0001 55.25C12.9576 55.25 11.0689 56.265 9.91012 57.8963C9.53387 57.805 9.14762 57.75 8.75012 57.75C7.83762 57.75 6.98762 58.0038 6.25012 58.4325V35.25H31.3789C33.8814 36.825 36.8314 37.75 40.0001 37.75C43.1689 37.75 46.1189 36.825 48.6214 35.25H73.7501V37.75ZM76.2501 32.75H51.6989C52.4351 31.985 53.0951 31.1475 53.6714 30.25H76.2501V32.75Z" fill="#EFE7E2"/>
<path d="M23.75 40.25H26.25V52.75H23.75V40.25Z" fill="#EFE7E2"/>
</svg>

<svg width="79" height="78" fill="none" xmlns="http://www.w3.org/2000/svg"><path d="M46.25 45.25v11.596A2.489 2.489 0 0147.5 59c0 .922-.506 1.72-1.25 2.154V71.5h12.5V45.25h-12.5zm-10 7.5h-22.5v-12.5h22.5v12.5z" fill="#FF6E40"/><path d="M47.193 17.75a4.05 4.05 0 00-3.937 3.074l-.155.62-1.59-.454-2.809-9.832-2.403.687 2.381 8.336-8.336-2.381-.688 2.404 9.833 2.808.454 1.59-.62.155a4.048 4.048 0 00-3.073 3.935 4.062 4.062 0 004.057 4.058 3.447 3.447 0 003.31-4.389L42.32 23.82l4.544 1.299a3.446 3.446 0 004.386-3.311 4.062 4.062 0 00-4.057-4.058zm-6.886 12.5a1.56 1.56 0 01-1.557-1.558c0-.716.485-1.337 1.18-1.51l.7-.176.582 2.04a.943.943 0 01-.905 1.204zm7.242-7.536l-2.043-.584.175-.7a1.555 1.555 0 011.512-1.18 1.56 1.56 0 011.557 1.558c0 .606-.62 1.07-1.201.906z" fill="#EFE7E2"/><path d="M76.25 27.75h-.82l3.51-11.699-.659-.526C65.97 5.674 50.505.25 34.74.25H21.25v11.006C9.74 13.285 2.23 17.705 1.856 17.93l-.892.536 3.482 9.285H3.75a2.502 2.502 0 00-2.5 2.5v2.5c0 1.379 1.121 2.5 2.5 2.5V62.19a4.99 4.99 0 00-2.5 4.311c0 .78.2 1.531.54 2.216a2.48 2.48 0 00-.54 1.534v7.5h75v-10c1.379 0 2.5-1.121 2.5-2.5v-17.5a2.49 2.49 0 00-1.021-2.005 4.95 4.95 0 001.021-2.995c0-1.843-1.012-3.438-2.5-4.305V35.25c1.379 0 2.5-1.121 2.5-2.5v-2.5c0-1.379-1.121-2.5-2.5-2.5zm-52.5-25h10.99c14.921 0 29.56 5.037 41.32 14.205L72.82 27.75h-4.07v-8.151l-.532-.374c-.21-.146-5.144-3.546-14.338-6.134C51.026 8.401 45.881 5.25 40 5.25c-4.671 0-8.876 1.992-11.844 5.159a65.533 65.533 0 00-4.406.456V2.75zM40 35.25c-7.581 0-13.75-6.169-13.75-13.75S32.42 7.75 40 7.75s13.75 6.169 13.75 13.75S47.581 35.25 40 35.25zm-27.849-7.5l-1.963-5.89c.847-.317 1.767-.64 2.748-.959l1.713 6.849H12.15zm5.075 0l-1.895-7.578a65.96 65.96 0 012.53-.656l1.832 8.234h-2.467zm5.027 0l-1.95-8.776a63.947 63.947 0 013.76-.635 16.164 16.164 0 00.94 9.411h-2.75zm43.997-4.718c-1.975-1.098-5.427-2.78-10.255-4.308a16.179 16.179 0 00-.676-2.595c5.871 1.868 9.611 3.988 10.931 4.803v2.1zm-10.004-1.598l.004.001v6.315h-1.254a16.164 16.164 0 001.254-6.25c0-.023-.004-.044-.004-.066zm2.504.897c.91.35 1.74.695 2.5 1.03v4.389h-2.5v-5.419zm5 2.212a35.09 35.09 0 012.5 1.39v1.817h-2.5v-3.207zM26.121 13.09c-.506.833-.938 1.71-1.29 2.632-9.235 1.118-16.475 4.013-20.083 5.71l-.698-1.86c2.659-1.394 10.948-5.31 22.071-6.482zM5.63 23.784a55.134 55.134 0 012.231-.999l1.655 4.965h-2.4L5.63 23.784zM3.75 30.25h22.58a16.309 16.309 0 001.972 2.5H3.751v-2.5zm1.684 33.904l.897-.313-.06-.949-.02-.142c0-1.379 1.12-2.5 2.5-2.5 1.052 0 1.995.678 2.345 1.684l.313.897.949-.061.142-.02c1.379 0 2.5 1.121 2.5 2.5s-1.121 2.5-2.5 2.5H4.091a2.492 2.492 0 01-.34-1.25c0-1.052.677-1.996 1.683-2.346zm26.632 0A2.495 2.495 0 0133.75 66.5c0 .444-.121.873-.341 1.25H25a2.503 2.503 0 01-2.5-2.5c0-1.379 1.121-2.5 2.456-2.5l1.134.081.313-.897a2.498 2.498 0 012.347-1.684c1.379 0 2.5 1.121 2.5 2.456l-.081 1.134.897.314zm-8.33-3.725C21.59 60.992 20 62.932 20 65.25c0 .915.265 1.761.695 2.5h-3.891a4.938 4.938 0 00.696-2.5 5.008 5.008 0 00-4.417-4.966 4.98 4.98 0 00-.953-1.19A3.762 3.762 0 0115 57.75c.938 0 1.84.36 2.543 1.013l.96.893.846-1.003a2.49 2.49 0 011.901-.903c1.379 0 2.5 1.121 2.5 2.5 0 .06-.011.119-.015.179zM33.75 75.25h-30v-5h30v5zm2.5-2.5h30v2.5h-30v-2.5zm25-2.5h-7.5v-2.5h5v-2.5h-5v-2.5h5v-2.5h-5v-2.5h5v-2.5h-5v-2.5h5v-2.5h-5v-5h-2.5v5h-5v2.5h5v2.5h-5v.23c-.392-.14-.81-.23-1.25-.23-.44 0-.857.09-1.25.23V42.75h17.5v27.5zM45 60.25c-.689 0-1.25-.561-1.25-1.25s.561-1.25 1.25-1.25 1.25.561 1.25 1.25-.561 1.25-1.25 1.25zm3.52-2.5h2.73v2.5h-2.73c.14-.392.23-.81.23-1.25 0-.44-.09-.858-.23-1.25zm-4.77 4.77c.393.14.81.23 1.25.23.44 0 .858-.09 1.25-.23v.23h5v2.5h-5v2.5h5v2.5h-7.5v-7.73zm27.5 2.73v-2.5h5.001v2.5h-5zm0-22.5c0-1.379 1.121-2.5 2.5-2.5s2.5 1.121 2.5 2.5-1.121 2.5-2.5 2.5a2.503 2.503 0 01-2.5-2.5zm5 5v2.5h-5v-2.5h5zm.001 11.415l-5-3.334v-1.995l5 3.334v1.995zM74.13 52.75h2.121v1.415L74.13 52.75zm-.758 7.5h-2.12v-1.415l2.12 1.415zm.38-22.5c-2.758 0-5 2.242-5 5a4.95 4.95 0 001.02 2.995 2.49 2.49 0 00-1.02 2.005v17.5c0 1.379 1.12 2.5 2.5 2.5h2.5v7.5h-5v-2.5c0-1.379-1.122-2.5-2.5-2.5h-2.5v-30h-22.5v30h-5a2.48 2.48 0 00-.54-1.534 4.98 4.98 0 00.54-2.216 4.99 4.99 0 00-2.535-4.333 5.008 5.008 0 00-4.966-4.417 4.947 4.947 0 00-2.794.876c-.678-1.957-2.52-3.376-4.706-3.376a4.952 4.952 0 00-2.932.966A6.183 6.183 0 0015 55.25a6.262 6.262 0 00-5.09 2.646 4.904 4.904 0 00-1.16-.146c-.912 0-1.762.254-2.5.682V35.25h25.13a16.13 16.13 0 008.62 2.5 16.13 16.13 0 008.621-2.5h25.13v2.5zm2.5-5H51.698a16.321 16.321 0 001.972-2.5h22.58v2.5z" fill="#EFE7E2"/><path d="M23.75 40.25h2.5v12.5h-2.5v-12.5z" fill="#EFE7E2"/></svg>
